X:9
T:Black Rogue
Z: id:dc-jig-6
M:6/8
L:1/8
K:D Major
d|cAA BAB|cAA A2d|cAA BGG|AFD D2d|!
cAA BAB|BcA AFD|GFG GBG|AFD D2:|!
e|fef gfg|afd cBA|fef gfg|afd d2f|!
agf gfe|fed ecA|BAB Bcd|AFD D2:|!

